src/assets/icons/sort-alt.svg

<svg width="14" height="14" viewBox="0 0 14 14" fill="none" xmlns="http://www.w3.org/2000/svg">
<g id="sort-alt">
<g clip-path="url(#clip0_156_4666)">
<path id="Vector" fill-rule="evenodd" clip-rule="evenodd" d="M3.64639 0.0514017C3.56652 0.0182805 3.47893 0 3.38708 0C3.29523 0 3.20765 0.0182805 3.12778 0.0514017C3.04788 0.0844596 2.97302 0.133463 2.90808 0.198412L0.650011 2.45648C0.385462 2.72102 0.385462 3.14994 0.650011 3.41449C0.914559 3.67904 1.34348 3.67904 1.60803 3.41449L2.70966 2.31285V13.3226C2.70966 13.6967 3.01295 14 3.38708 14C3.76121 14 4.0645 13.6967 4.0645 13.3226V2.31285L5.16614 3.41449C5.43069 3.67904 5.85961 3.67904 6.12416 3.41449C6.3887 3.14994 6.3887 2.72102 6.12416 2.45648L3.86609 0.198412C3.80114 0.133463 3.72629 0.0844596 3.64639 0.0514017ZM7.87582 10.5855C8.14037 10.321 8.56928 10.321 8.83383 10.5855L9.93547 11.6871V0.677419C9.93547 0.303291 10.2388 0 10.6129 0C10.987 0 11.2903 0.303291 11.2903 0.677419V11.6871L12.3919 10.5855C12.6565 10.321 13.0854 10.321 13.35 10.5855C13.6145 10.8501 13.6145 11.279 13.35 11.5435L11.0919 13.8016C11.0269 13.8665 10.9521 13.9155 10.8722 13.9486C10.7923 13.9817 10.7047 14 10.6129 14C10.521 14 10.4335 13.9817 10.3536 13.9486C10.2737 13.9155 10.1988 13.8665 10.1339 13.8016L7.87582 11.5435C7.61127 11.279 7.61127 10.8501 7.87582 10.5855Z" fill="black"/>
</g>
</g>
<defs>
<clipPath id="clip0_156_4666">
<rect width="14" height="14" fill="white"/>
</clipPath>
</defs>
</svg>

<svg xmlns="http://www.w3.org/2000/svg" fill="none" viewBox="0 0 14 14"><g clip-path="url(#a)"><path fill="#000" fill-rule="evenodd" d="M3.646.051a.675.675 0 0 0-.738.147L.65 2.456a.677.677 0 1 0 .958.958L2.71 2.313v11.01a.677.677 0 0 0 1.354 0V2.313l1.102 1.101a.677.677 0 0 0 .958-.958L3.866.198a.7.7 0 0 0-.22-.147m4.23 10.535a.68.68 0 0 1 .958 0l1.101 1.101V.677a.677.677 0 0 1 1.355 0v11.01l1.102-1.101a.678.678 0 0 1 .958.957l-2.258 2.259a.677.677 0 0 1-.958 0l-2.258-2.258a.677.677 0 0 1 0-.959" clip-rule="evenodd"/></g><defs><clipPath id="a"><path fill="#fff" d="M0 0h14v14H0z"/></clipPath></defs></svg>
